img/icon-behance.svg

<svg xmlns="http://www.w3.org/2000/svg" width="85.2" height="51.3" viewBox="0 0 85.2 51.3"><style type="text/css">.st0{fill:#A7A9AC;}</style><path class="st0" d="M35 22.4s7.1-.5 7.1-8.8-5.8-12.3-13.1-12.3h-24.1v46.2h24.1s14.7.5 14.7-13.6c0-.1.6-11.5-8.7-11.5zm-19.5-12.9h13.5s3.3 0 3.3 4.8-1.9 5.5-4.1 5.5h-12.7v-10.3zm12.8 29.8h-12.8v-12.4h13.5s4.9-.1 4.9 6.3c-.1 5.5-3.7 6-5.6 6.1zM63.2 13c-17.8 0-17.8 17.8-17.8 17.8s-1.2 17.7 17.8 17.7c0 0 15.8.9 15.8-12.3h-8.1s.3 5-7.4 5c0 0-8.1.5-8.1-8h24c-.1-.1 2.5-20.2-16.2-20.2zm-7.9 13.9s1-7.1 8.1-7.1 7 7.1 7 7.1h-15.1zM53.3 4h19.1v5.7h-19.1z"/></svg>

<?xml version="1.0" encoding="utf-8"?>
<!-- Generator: Adobe Illustrator 19.1.0, SVG Export Plug-In . SVG Version: 6.00 Build 0)  -->
<!DOCTYPE svg PUBLIC "-//W3C//DTD SVG 1.1//EN" "http://www.w3.org/Graphics/SVG/1.1/DTD/svg11.dtd">
<svg version="1.1" id="Layer_1" xmlns="http://www.w3.org/2000/svg" xmlns:xlink="http://www.w3.org/1999/xlink" x="0px" y="0px"
	 width="85.2px" height="51.3px" viewBox="0 0 85.2 51.3" style="enable-background:new 0 0 85.2 51.3;" xml:space="preserve">
<style type="text/css">
	.st0{fill:#A7A9AC;}
</style>
<g>
	<path class="st0" d="M35,22.4c0,0,7.1-0.5,7.1-8.8S36.3,1.3,29,1.3H15.5h-0.4H4.9v46.2h10.2h0.4H29c0,0,14.7,0.5,14.7-13.6
		C43.7,33.8,44.3,22.4,35,22.4z M15.5,9.5h11.7H29c0,0,3.3,0,3.3,4.8c0,4.8-1.9,5.5-4.1,5.5H15.5V9.5z M28.3,39.3
		c-0.4,0-0.7,0-0.9,0H15.5V26.9H29c0,0,4.9-0.1,4.9,6.3C33.8,38.7,30.2,39.2,28.3,39.3z"/>
	<path class="st0" d="M63.2,13c-17.8,0-17.8,17.8-17.8,17.8s-1.2,17.7,17.8,17.7c0,0,15.8,0.9,15.8-12.3h-8.1c0,0,0.3,5-7.4,5
		c0,0-8.1,0.5-8.1-8h24C79.3,33.1,81.9,13,63.2,13z M55.3,26.9c0,0,1-7.1,8.1-7.1c7.1,0,7,7.1,7,7.1H55.3z"/>
	<rect x="53.3" y="4" class="st0" width="19.1" height="5.7"/>
</g>
<g>
</g>
<g>
</g>
<g>
</g>
<g>
</g>
<g>
</g>
<g>
</g>
</svg>
